assets/icons/qvision/photo_camera_back.svg

<svg xmlns="http://www.w3.org/2000/svg" height="24" viewBox="0 0 24 24" width="24"><path d="M0 0h24v24H0z" fill="none"/><path d="M20 5c1.1 0 2 .9 2 2v12c0 1.1-.9 2-2 2H4c-1.1 0-2-.9-2-2V7c0-1.1.9-2 2-2h3.17L9 3h6l1.83 2H20zm0 14V7H4v12h16zm-6-7l-3 3.72L9 13l-3 4h12l-4-5z"/></svg>

<svg width="24" height="24" viewBox="0 0 24 24" fill="none" xmlns="http://www.w3.org/2000/svg">
<g clip-path="url(#clip0_147_3669)">
<path d="M20 5C21.1 5 22 5.9 22 7V19C22 20.1 21.1 21 20 21H4C2.9 21 2 20.1 2 19V7C2 5.9 2.9 5 4 5H7.17L9 3H15L16.83 5H20ZM20 19V7H4V19H20ZM14 12L11 15.72L9 13L6 17H18L14 12Z" fill="#323232"/>
</g>
<defs>
<clipPath id="clip0_147_3669">
<rect width="24" height="24" fill="white"/>
</clipPath>
</defs>
</svg>
